X:230
M:none
L:1/4
K:F
F G A G | A B c2 A2 | d c B A | G G A4 | c c c A/B/ | c c/B/ A2 G2 | !sintro!F G A B | A G F4 !eintro!|]
